X:535
T:When Erin First Rose
M:6/8
L:1/8
B:O'Neill's 535
N:"Boldly" "collected by F. O'Neill"
Z:Transcribed by Dave Wooldridge
K:Gm
D \
| DGG G^FD | BAB  c2 c | dfd cBA | BGG FDC |
DGG G^FD | BAB c2 (=B/2c/2) | dfd cBA | BGG G2 ||
d/2d/2 \
| dgg fdc | Bcd f2 f/2f/2 | dfd c>BA | B>GG FDC |
dgg fdc | Bcd f2 f | dfd cBA | BGG G2 ||


